img/airbnb.svg

<svg version="1.1" id="Layer_1" xmlns="http://www.w3.org/2000/svg" xmlns:xlink="http://www.w3.org/1999/xlink" x="0px" y="0px" viewBox="0 0 320.1 99.9" enable-background="new 0 0 320.1 99.9" xml:space="preserve">
 <path fill="#FF385C" d="M168.7,25.1c0,3.6-2.9,6.5-6.5,6.5s-6.5-2.9-6.5-6.5s2.8-6.5,6.5-6.5C165.9,18.7,168.7,21.6,168.7,25.1z
	 M141.9,38.2c0,0.6,0,1.6,0,1.6s-3.1-4-9.7-4c-10.9,0-19.4,8.3-19.4,19.8c0,11.4,8.4,19.8,19.4,19.8c6.7,0,9.7-4.1,9.7-4.1v1.7
	c0,0.8,0.6,1.4,1.4,1.4h8.1V36.8c0,0-7.4,0-8.1,0C142.5,36.8,141.9,37.5,141.9,38.2z M141.9,62.3c-1.5,2.2-4.5,4.1-8.1,4.1
	c-6.4,0-11.3-4-11.3-10.8s4.9-10.8,11.3-10.8c3.5,0,6.7,2,8.1,4.1V62.3z M157.4,36.8h9.6v37.6h-9.6V36.8z M300.8,35.8
	c-6.6,0-9.7,4-9.7,4V18.7h-9.6v55.7c0,0,7.4,0,8.1,0c0.8,0,1.4-0.7,1.4-1.4v-1.7l0,0c0,0,3.1,4.1,9.7,4.1c10.9,0,19.4-8.4,19.4-19.8
	C320.1,44.2,311.6,35.8,300.8,35.8z M299.2,66.3c-3.7,0-6.6-1.9-8.1-4.1V48.8c1.5-2,4.7-4.1,8.1-4.1c6.4,0,11.3,4,11.3,10.8
	S305.6,66.3,299.2,66.3z M276.5,52.1v22.4h-9.6V53.2c0-6.2-2-8.7-7.4-8.7c-2.9,0-5.9,1.5-7.8,3.7v26.2h-9.6V36.8h7.6
	c0.8,0,1.4,0.7,1.4,1.4v1.6c2.8-2.9,6.5-4,10.2-4c4.2,0,7.7,1.2,10.5,3.6C275.2,42.2,276.5,45.8,276.5,52.1z M218.8,35.8
	c-6.6,0-9.7,4-9.7,4V18.7h-9.6v55.7c0,0,7.4,0,8.1,0c0.8,0,1.4-0.7,1.4-1.4v-1.7l0,0c0,0,3.1,4.1,9.7,4.1c10.9,0,19.4-8.4,19.4-19.8
	C238.2,44.2,229.7,35.8,218.8,35.8z M217.2,66.3c-3.7,0-6.6-1.9-8.1-4.1V48.8c1.5-2,4.7-4.1,8.1-4.1c6.4,0,11.3,4,11.3,10.8
	S223.6,66.3,217.2,66.3z M191.2,35.8c2.9,0,4.4,0.5,4.4,0.5v8.9c0,0-8-2.7-13,3v26.3h-9.6V36.8c0,0,7.4,0,8.1,0
	c0.8,0,1.4,0.7,1.4,1.4v1.6C184.3,37.7,188.2,35.8,191.2,35.8z M91.5,71c-0.5-1.2-1-2.5-1.5-3.6c-0.8-1.8-1.6-3.5-2.3-5.1l-0.1-0.1
	c-6.9-15-14.3-30.2-22.1-45.2l-0.3-0.6c-0.8-1.5-1.6-3.1-2.4-4.7c-1-1.8-2-3.7-3.6-5.5C56,2.2,51.4,0,46.5,0c-5,0-9.5,2.2-12.8,6
	c-1.5,1.8-2.6,3.7-3.6,5.5c-0.8,1.6-1.6,3.2-2.4,4.7l-0.3,0.6C19.7,31.8,12.2,47,5.3,62l-0.1,0.2c-0.7,1.6-1.5,3.3-2.3,5.1
	c-0.5,1.1-1,2.3-1.5,3.6c-1.3,3.7-1.7,7.2-1.2,10.8c1.1,7.5,6.1,13.8,13,16.6c2.6,1.1,5.3,1.6,8.1,1.6c0.8,0,1.8-0.1,2.6-0.2
	c3.3-0.4,6.7-1.5,10-3.4c4.1-2.3,8-5.6,12.4-10.4c4.4,4.8,8.4,8.1,12.4,10.4c3.3,1.9,6.7,3,10,3.4c0.8,0.1,1.8,0.2,2.6,0.2
	c2.8,0,5.6-0.5,8.1-1.6c7-2.8,11.9-9.2,13-16.6C93.2,78.2,92.8,74.7,91.5,71z M46.4,76.2c-5.4-6.8-8.9-13.2-10.1-18.6
	c-0.5-2.3-0.6-4.3-0.3-6.1c0.2-1.6,0.8-3,1.6-4.2c1.9-2.7,5.1-4.4,8.8-4.4c3.7,0,7,1.6,8.8,4.4c0.8,1.2,1.4,2.6,1.6,4.2
	c0.3,1.8,0.2,3.9-0.3,6.1C55.3,62.9,51.8,69.3,46.4,76.2z M86.3,80.9c-0.7,5.2-4.2,9.7-9.1,11.7c-2.4,1-5,1.3-7.6,1
	c-2.5-0.3-5-1.1-7.6-2.6c-3.6-2-7.2-5.1-11.4-9.7c6.6-8.1,10.6-15.5,12.1-22.1c0.7-3.1,0.8-5.9,0.5-8.5c-0.4-2.5-1.3-4.8-2.7-6.8
	c-3.1-4.5-8.3-7.1-14.1-7.1s-11,2.7-14.1,7.1c-1.4,2-2.3,4.3-2.7,6.8c-0.4,2.6-0.3,5.5,0.5,8.5c1.5,6.6,5.6,14.1,12.1,22.2
	c-4.1,4.6-7.8,7.7-11.4,9.7c-2.6,1.5-5.1,2.3-7.6,2.6c-2.7,0.3-5.3-0.1-7.6-1c-4.9-2-8.4-6.5-9.1-11.7c-0.3-2.5-0.1-5,0.9-7.8
	c0.3-1,0.8-2,1.3-3.2c0.7-1.6,1.5-3.3,2.3-5l0.1-0.2c6.9-14.9,14.3-30.1,22-44.9l0.3-0.6c0.8-1.5,1.6-3.1,2.4-4.6
	c0.8-1.6,1.7-3.1,2.8-4.4c2.1-2.4,4.9-3.7,8-3.7c3.1,0,5.9,1.3,8,3.7c1.1,1.3,2,2.8,2.8,4.4c0.8,1.5,1.6,3.1,2.4,4.6l0.3,0.6
	C67.7,34.8,75.1,50,82,64.9L82,65c0.8,1.6,1.5,3.4,2.3,5c0.5,1.2,1,2.2,1.3,3.2C86.4,75.8,86.7,78.3,86.3,80.9z">
 </path>
</svg>

<svg width="321" height="100" viewBox="0 0 321 100" fill="none" xmlns="http://www.w3.org/2000/svg">
<path d="M168.7 25.1C168.7 28.7 165.8 31.6 162.2 31.6C158.6 31.6 155.7 28.7 155.7 25.1C155.7 21.5 158.5 18.6 162.2 18.6C165.9 18.7 168.7 21.6 168.7 25.1ZM141.9 38.2C141.9 38.8 141.9 39.8 141.9 39.8C141.9 39.8 138.8 35.8 132.2 35.8C121.3 35.8 112.8 44.1 112.8 55.6C112.8 67 121.2 75.4 132.2 75.4C138.9 75.4 141.9 71.3 141.9 71.3V73C141.9 73.8 142.5 74.4 143.3 74.4H151.4V36.8C151.4 36.8 144 36.8 143.3 36.8C142.5 36.8 141.9 37.5 141.9 38.2ZM141.9 62.3C140.4 64.5 137.4 66.4 133.8 66.4C127.4 66.4 122.5 62.4 122.5 55.6C122.5 48.8 127.4 44.8 133.8 44.8C137.3 44.8 140.5 46.8 141.9 48.9V62.3ZM157.4 36.8H167V74.4H157.4V36.8ZM300.8 35.8C294.2 35.8 291.1 39.8 291.1 39.8V18.7H281.5V74.4C281.5 74.4 288.9 74.4 289.6 74.4C290.4 74.4 291 73.7 291 73V71.3C291 71.3 294.1 75.4 300.7 75.4C311.6 75.4 320.1 67 320.1 55.6C320.1 44.2 311.6 35.8 300.8 35.8ZM299.2 66.3C295.5 66.3 292.6 64.4 291.1 62.2V48.8C292.6 46.8 295.8 44.7 299.2 44.7C305.6 44.7 310.5 48.7 310.5 55.5C310.5 62.3 305.6 66.3 299.2 66.3ZM276.5 52.1V74.5H266.9V53.2C266.9 47 264.9 44.5 259.5 44.5C256.6 44.5 253.6 46 251.7 48.2V74.4H242.1V36.8H249.7C250.5 36.8 251.1 37.5 251.1 38.2V39.8C253.9 36.9 257.6 35.8 261.3 35.8C265.5 35.8 269 37 271.8 39.4C275.2 42.2 276.5 45.8 276.5 52.1ZM218.8 35.8C212.2 35.8 209.1 39.8 209.1 39.8V18.7H199.5V74.4C199.5 74.4 206.9 74.4 207.6 74.4C208.4 74.4 209 73.7 209 73V71.3C209 71.3 212.1 75.4 218.7 75.4C229.6 75.4 238.1 67 238.1 55.6C238.2 44.2 229.7 35.8 218.8 35.8ZM217.2 66.3C213.5 66.3 210.6 64.4 209.1 62.2V48.8C210.6 46.8 213.8 44.7 217.2 44.7C223.6 44.7 228.5 48.7 228.5 55.5C228.5 62.3 223.6 66.3 217.2 66.3ZM191.2 35.8C194.1 35.8 195.6 36.3 195.6 36.3V45.2C195.6 45.2 187.6 42.5 182.6 48.2V74.5H173V36.8C173 36.8 180.4 36.8 181.1 36.8C181.9 36.8 182.5 37.5 182.5 38.2V39.8C184.3 37.7 188.2 35.8 191.2 35.8ZM91.5 71C91 69.8 90.5 68.5 90 67.4C89.2 65.6 88.4 63.9 87.7 62.3L87.6 62.2C80.7 47.2 73.3 32 65.5 17L65.2 16.4C64.4 14.9 63.6 13.3 62.8 11.7C61.8 9.9 60.8 8 59.2 6.2C56 2.2 51.4 0 46.5 0C41.5 0 37 2.2 33.7 6C32.2 7.8 31.1 9.7 30.1 11.5C29.3 13.1 28.5 14.7 27.7 16.2L27.4 16.8C19.7 31.8 12.2 47 5.3 62L5.2 62.2C4.5 63.8 3.7 65.5 2.9 67.3C2.4 68.4 1.9 69.6 1.4 70.9C0.0999982 74.6 -0.300002 78.1 0.199998 81.7C1.3 89.2 6.3 95.5 13.2 98.3C15.8 99.4 18.5 99.9 21.3 99.9C22.1 99.9 23.1 99.8 23.9 99.7C27.2 99.3 30.6 98.2 33.9 96.3C38 94 41.9 90.7 46.3 85.9C50.7 90.7 54.7 94 58.7 96.3C62 98.2 65.4 99.3 68.7 99.7C69.5 99.8 70.5 99.9 71.3 99.9C74.1 99.9 76.9 99.4 79.4 98.3C86.4 95.5 91.3 89.1 92.4 81.7C93.2 78.2 92.8 74.7 91.5 71ZM46.4 76.2C41 69.4 37.5 63 36.3 57.6C35.8 55.3 35.7 53.3 36 51.5C36.2 49.9 36.8 48.5 37.6 47.3C39.5 44.6 42.7 42.9 46.4 42.9C50.1 42.9 53.4 44.5 55.2 47.3C56 48.5 56.6 49.9 56.8 51.5C57.1 53.3 57 55.4 56.5 57.6C55.3 62.9 51.8 69.3 46.4 76.2ZM86.3 80.9C85.6 86.1 82.1 90.6 77.2 92.6C74.8 93.6 72.2 93.9 69.6 93.6C67.1 93.3 64.6 92.5 62 91C58.4 89 54.8 85.9 50.6 81.3C57.2 73.2 61.2 65.8 62.7 59.2C63.4 56.1 63.5 53.3 63.2 50.7C62.8 48.2 61.9 45.9 60.5 43.9C57.4 39.4 52.2 36.8 46.4 36.8C40.6 36.8 35.4 39.5 32.3 43.9C30.9 45.9 30 48.2 29.6 50.7C29.2 53.3 29.3 56.2 30.1 59.2C31.6 65.8 35.7 73.3 42.2 81.4C38.1 86 34.4 89.1 30.8 91.1C28.2 92.6 25.7 93.4 23.2 93.7C20.5 94 17.9 93.6 15.6 92.7C10.7 90.7 7.2 86.2 6.5 81C6.2 78.5 6.4 76 7.4 73.2C7.7 72.2 8.2 71.2 8.7 70C9.4 68.4 10.2 66.7 11 65L11.1 64.8C18 49.9 25.4 34.7 33.1 19.9L33.4 19.3C34.2 17.8 35 16.2 35.8 14.7C36.6 13.1 37.5 11.6 38.6 10.3C40.7 7.9 43.5 6.6 46.6 6.6C49.7 6.6 52.5 7.9 54.6 10.3C55.7 11.6 56.6 13.1 57.4 14.7C58.2 16.2 59 17.8 59.8 19.3L60.1 19.9C67.7 34.8 75.1 50 82 64.9V65C82.8 66.6 83.5 68.4 84.3 70C84.8 71.2 85.3 72.2 85.6 73.2C86.4 75.8 86.7 78.3 86.3 80.9Z" fill="#FF385C"/>
</svg>
